turtle_art_plugin/butia/icons/butiaoff.svg

<?xml version="1.0" encoding="UTF-8" standalone="no"?>
<!-- Created with Inkscape (http://www.inkscape.org/) -->

<svg
   xmlns:dc="http://purl.org/dc/elements/1.1/"
   xmlns:cc="http://creativecommons.org/ns#"
   xmlns:rdf="http://www.w3.org/1999/02/22-rdf-syntax-ns#"
   xmlns:svg="http://www.w3.org/2000/svg"
   xmlns="http://www.w3.org/2000/svg"
   xmlns:sodipodi="http://sodipodi.sourceforge.net/DTD/sodipodi-0.dtd"
   xmlns:inkscape="http://www.inkscape.org/namespaces/inkscape"
   version="1.0"
   width="55"
   height="55"
   id="svg2381"
   sodipodi:version="0.32"
   inkscape:version="0.48.3.1 r9886"
   sodipodi:docname="butiaoff.svg"
   inkscape:output_extension="org.inkscape.output.svg.inkscape">
  <metadata
     id="metadata3470">
    <rdf:RDF>
      <cc:Work
         rdf:about="">
        <dc:format>image/svg+xml</dc:format>
        <dc:type
           rdf:resource="http://purl.org/dc/dcmitype/StillImage" />
      </cc:Work>
    </rdf:RDF>
  </metadata>
  <sodipodi:namedview
     inkscape:window-height="744"
     inkscape:window-width="1366"
     inkscape:pageshadow="2"
     inkscape:pageopacity="0.0"
     guidetolerance="10.0"
     gridtolerance="10.0"
     objecttolerance="10.0"
     borderopacity="1.0"
     bordercolor="#666666"
     pagecolor="#ffffff"
     id="base"
     showgrid="false"
     inkscape:zoom="8"
     inkscape:cx="18.371413"
     inkscape:cy="28.257305"
     inkscape:window-x="0"
     inkscape:window-y="24"
     inkscape:current-layer="svg2381"
     inkscape:window-maximized="1" />
  <defs
     id="defs2383">
    <inkscape:perspective
       sodipodi:type="inkscape:persp3d"
       inkscape:vp_x="0 : 250.18124 : 1"
       inkscape:vp_y="0 : 1000 : 0"
       inkscape:vp_z="487.29123 : 250.18124 : 1"
       inkscape:persp3d-origin="243.64561 : 166.7875 : 1"
       id="perspective3472" />
    <inkscape:perspective
       id="perspective2505"
       inkscape:persp3d-origin="27.5 : 18.333333 : 1"
       inkscape:vp_z="55 : 27.5 : 1"
       inkscape:vp_y="0 : 1000 : 0"
       inkscape:vp_x="0 : 27.5 : 1"
       sodipodi:type="inkscape:persp3d" />
  </defs>
  <g
     inkscape:groupmode="layer"
     id="layer3"
     inkscape:label="fondo">
    <g
       id="g2508"
       transform="matrix(0.81818182,0,0,0.81818182,-7.9886364,-5.3295456)">
      <rect
         style="fill:#282828;fill-opacity:1;fill-rule:nonzero;stroke:none"
         id="rect3269"
         y="12.625"
         x="15.875"
         height="55"
         width="55" />
    </g>
  </g>
  <g
     transform="matrix(0.81806491,0,0,0.818089,-255.5476,-311.18069)"
     id="layer1">
    <path
       d="m 359.41706,389.22836 c 0,1.26285 2.3607,2.33744 3.28185,2.9352 1.26939,0.8245 2.32091,1.79466 3.38683,2.83215 1.1661,1.13368 1.83692,2.0736 2.84159,3.36257 0.58884,0.75578 2.01077,3.45325 2.75059,3.45325 1.00312,0 1.82252,-0.41911 1.82252,-1.45249 0,-1.40164 -4.22965,-6.13424 -5.26073,-7.13738 -1.13377,-1.10481 -5.65016,-5.28364 -7.33144,-5.28364 -0.6673,0 -1.49121,0.58264 -1.49121,1.29034 l 0,0 0,0 z m -40.26171,9.1945 c 0,0.78052 0.52394,1.29034 1.32542,1.29034 1.53693,0 2.45722,-2.10384 3.24713,-3.12897 1.52973,-1.98566 4.24081,-4.83017 6.59431,-5.84018 0.97025,-0.41499 3.41351,-1.62975 3.41351,-2.80603 0,-0.58538 -0.19656,-0.56615 -0.33146,-1.12955 -0.97574,-0.0783 -0.34543,-0.32156 -0.99409,-0.32156 -2.70233,0 -13.25482,9.41024 -13.25482,11.93595 l 0,0 0,0 z m 15.07735,7.42045 c 0,2.07636 1.93738,3.25677 3.27253,4.55672 0.40272,0.39301 3.85205,3.72398 3.85205,3.83255 0,1.42775 -7.45605,5.86078 -7.45605,8.71078 0,1.77542 1.22819,3.06438 2.98243,3.06438 2.84005,0 8.02838,-7.25968 8.94713,-7.25968 0.69706,0 6.93183,6.96561 7.95288,7.09753 2.32558,0.23773 3.97665,-0.77914 3.97665,-3.06575 0,-2.56556 -7.30309,-6.92164 -7.45591,-8.70941 l 6.79314,-6.2923 c 0.35221,-0.56753 0.33132,-0.50156 0.33132,-1.12818 0,-1.68609 -0.76042,-3.54946 -2.81663,-3.54946 -3.1873,0 -6.43641,5.4087 -8.78145,6.93677 -2.09035,-1.3618 -5.84208,-6.93677 -8.45001,-6.93677 -1.5804,0 -3.14808,1.07185 -3.14808,2.74282 l 0,0 0,0 z m 29.20871,33.27667 c 1.32597,-0.93718 2.16767,-1.63938 3.3071,-2.74833 0.86061,-0.83824 5.42652,-5.5461 5.42652,-6.4929 0,-1.16391 -0.3721,-1.77404 -1.65701,-1.77404 -0.8472,0 -2.29382,2.53395 -2.9391,3.26776 -1.99101,2.2646 -3.86969,4.16644 -6.43868,5.83055 -0.8201,0.53042 -3.37992,1.65174 -3.37992,2.67686 0,0.88633 0.427,1.61327 1.49108,1.61327 1.0844,0 3.25743,-1.71358 4.19001,-2.37317 l 0,0 0,0 z M 327.2739,414.39335 c 0,-4.93599 2.42026,-9.55867 5.01167,-12.05826 1.97422,-1.90458 2.42815,-2.30996 4.98641,-3.69512 5.61109,-3.03551 12.12936,-2.34293 17.74736,0.35453 3.26548,1.5693 5.7165,4.57596 7.40991,7.62659 3.78857,6.8227 1.67577,15.50054 -3.71589,20.79791 -3.59793,3.53572 -7.94781,4.82606 -12.71381,5.08302 -5.27837,-0.6541 -9.22129,-1.33431 -13.13361,-5.16409 -3.5436,-3.46838 -5.59204,-8.04708 -5.59204,-12.94458 l 0,0 0,0 z m 0.95289,16.49403 c 1.67705,1.63251 4.15939,3.70474 6.38477,4.75322 1.7019,0.80113 6.43502,2.46524 8.73391,2.46524 l 3.31389,0 c 12.62096,0 23.52734,-10.80776 23.52734,-23.06801 l 0,-1.93483 c 0,-3.60304 -1.45212,-6.38297 -2.46526,-8.89218 -0.9519,-2.35669 -3.13919,-4.87277 -4.86606,-6.55337 -3.39614,-3.3076 -9.50011,-6.81583 -16.19602,-6.81583 -7.51236,0 -14.9869,2.79092 -19.74894,8.67919 -2.88268,3.56457 -5.43557,8.58025 -5.43557,14.87254 0,6.14112 2.25051,12.11184 6.75194,16.49403 l 0,0 0,0 z m 4.68049,8.9925 c 0,-1.94306 -2.1245,-2.28523 -3.41336,-3.12896 -2.45115,-1.60364 -4.84248,-3.67175 -6.59685,-5.9982 -0.71004,-0.94268 -1.82324,-3.13172 -3.07908,-3.13172 -1.12927,0 -1.32541,0.93856 -1.32541,1.77405 0,0.9784 4.68896,6.10814 5.63325,6.7746 1.27178,0.8987 5.75727,4.83979 7.4559,4.83979 0.4998,0 1.32555,-0.65822 1.32555,-1.12956 l 0,0 0,0 z"
       id="path32"
       style="fill:#ffffff;fill-opacity:1;stroke:none"
       inkscape:connector-curvature="0" />
  </g>
</svg>

<?xml version="1.0" encoding="UTF-8" standalone="no"?>
<!-- Created with Inkscape (http://www.inkscape.org/) -->
<svg
   xmlns:dc="http://purl.org/dc/elements/1.1/"
   xmlns:cc="http://creativecommons.org/ns#"
   xmlns:rdf="http://www.w3.org/1999/02/22-rdf-syntax-ns#"
   xmlns:svg="http://www.w3.org/2000/svg"
   xmlns="http://www.w3.org/2000/svg"
   xmlns:sodipodi="http://sodipodi.sourceforge.net/DTD/sodipodi-0.dtd"
   xmlns:inkscape="http://www.inkscape.org/namespaces/inkscape"
   version="1.0"
   width="55"
   height="55"
   id="svg2381"
   sodipodi:version="0.32"
   inkscape:version="0.46"
   sodipodi:docname="butiaoff.svg"
   inkscape:output_extension="org.inkscape.output.svg.inkscape">
  <metadata
     id="metadata3470">
    <rdf:RDF>
      <cc:Work
         rdf:about="">
        <dc:format>image/svg+xml</dc:format>
        <dc:type
           rdf:resource="http://purl.org/dc/dcmitype/StillImage" />
      </cc:Work>
    </rdf:RDF>
  </metadata>
  <sodipodi:namedview
     inkscape:window-height="721"
     inkscape:window-width="960"
     inkscape:pageshadow="2"
     inkscape:pageopacity="0.0"
     guidetolerance="10.0"
     gridtolerance="10.0"
     objecttolerance="10.0"
     borderopacity="1.0"
     bordercolor="#666666"
     pagecolor="#ffffff"
     id="base"
     showgrid="false"
     inkscape:zoom="8"
     inkscape:cx="18.371413"
     inkscape:cy="28.257305"
     inkscape:window-x="0"
     inkscape:window-y="62"
     inkscape:current-layer="svg2381" />
  <defs
     id="defs2383">
    <inkscape:perspective
       sodipodi:type="inkscape:persp3d"
       inkscape:vp_x="0 : 250.18124 : 1"
       inkscape:vp_y="0 : 1000 : 0"
       inkscape:vp_z="487.29123 : 250.18124 : 1"
       inkscape:persp3d-origin="243.64561 : 166.7875 : 1"
       id="perspective3472" />
    <inkscape:perspective
       id="perspective2505"
       inkscape:persp3d-origin="27.5 : 18.333333 : 1"
       inkscape:vp_z="55 : 27.5 : 1"
       inkscape:vp_y="0 : 1000 : 0"
       inkscape:vp_x="0 : 27.5 : 1"
       sodipodi:type="inkscape:persp3d" />
  </defs>
  <g
     inkscape:groupmode="layer"
     id="layer3"
     inkscape:label="fondo">
    <g
       id="g2508"
       transform="translate(-15.625,-12.375)">
      <rect
         style="fill:#282828;fill-opacity:1;fill-rule:nonzero;stroke:none"
         id="rect3269"
         y="12.625"
         x="15.875"
         height="55"
         width="55" />
    </g>
  </g>
  <g
     transform="matrix(0.9568244,0,0,0.9477332,-303.49146,-364.66148)"
     id="layer1">
    <path
       d="M 359.41706,389.22836 C 359.41706,390.49121 361.77776,391.5658 362.69891,392.16356 C 363.9683,392.98806 365.01982,393.95822 366.08574,394.99571 C 367.25184,396.12939 367.92266,397.06931 368.92733,398.35828 C 369.51617,399.11406 370.9381,401.81153 371.67792,401.81153 C 372.68104,401.81153 373.50044,401.39242 373.50044,400.35904 C 373.50044,398.9574 369.27079,394.2248 368.23971,393.22166 C 367.10594,392.11685 362.58955,387.93802 360.90827,387.93802 C 360.24097,387.93802 359.41706,388.52066 359.41706,389.22836 L 359.41706,389.22836 L 359.41706,389.22836 z M 319.15535,398.42286 C 319.15535,399.20338 319.67929,399.7132 320.48077,399.7132 C 322.0177,399.7132 322.93799,397.60936 323.7279,396.58423 C 325.25763,394.59857 327.96871,391.75406 330.32221,390.74405 C 331.29246,390.32906 333.73572,389.1143 333.73572,387.93802 C 333.73572,387.35264 333.53916,387.37187 333.40426,386.80847 C 332.42852,386.73014 333.05883,386.48691 332.41017,386.48691 C 329.70784,386.48691 319.15535,395.89715 319.15535,398.42286 L 319.15535,398.42286 L 319.15535,398.42286 z M 334.2327,405.84331 C 334.2327,407.91967 336.17008,409.10008 337.50523,410.40003 C 337.90795,410.79304 341.35728,414.12401 341.35728,414.23258 C 341.35728,415.66033 333.90123,420.09336 333.90123,422.94336 C 333.90123,424.71878 335.12942,426.00774 336.88366,426.00774 C 339.72371,426.00774 344.91204,418.74806 345.83079,418.74806 C 346.52785,418.74806 352.76262,425.71367 353.78367,425.84559 C 356.10925,426.08332 357.76032,425.06645 357.76032,422.77984 C 357.76032,420.21428 350.45723,415.8582 350.30441,414.07043 L 357.09755,407.77813 C 357.44976,407.2106 357.42887,407.27657 357.42887,406.64995 C 357.42887,404.96386 356.66845,403.10049 354.61224,403.10049 C 351.42494,403.10049 348.17583,408.50919 345.83079,410.03726 C 343.74044,408.67546 339.98871,403.10049 337.38078,403.10049 C 335.80038,403.10049 334.2327,404.17234 334.2327,405.84331 L 334.2327,405.84331 L 334.2327,405.84331 z M 363.44141,439.11998 C 364.76738,438.1828 365.60908,437.4806 366.74851,436.37165 C 367.60912,435.53341 372.17503,430.82555 372.17503,429.87875 C 372.17503,428.71484 371.80293,428.10471 370.51802,428.10471 C 369.67082,428.10471 368.2242,430.63866 367.57892,431.37247 C 365.58791,433.63707 363.70923,435.53891 361.14024,437.20302 C 360.32014,437.73344 357.76032,438.85476 357.76032,439.87988 C 357.76032,440.76621 358.18732,441.49315 359.2514,441.49315 C 360.3358,441.49315 362.50883,439.77957 363.44141,439.11998 L 363.44141,439.11998 L 363.44141,439.11998 z M 327.2739,414.39335 C 327.2739,409.45736 329.69416,404.83468 332.28557,402.33509 C 334.25979,400.43051 334.71372,400.02513 337.27198,398.63997 C 342.88307,395.60446 349.40134,396.29704 355.01934,398.9945 C 358.28482,400.5638 360.73584,403.57046 362.42925,406.62109 C 366.21782,413.44379 364.10502,422.12163 358.71336,427.419 C 355.11543,430.95472 350.76555,432.24506 345.99955,432.50202 C 340.72118,431.84792 336.77826,431.16771 332.86594,427.33793 C 329.32234,423.86955 327.2739,419.29085 327.2739,414.39335 L 327.2739,414.39335 L 327.2739,414.39335 z M 328.22679,430.88738 C 329.90384,432.51989 332.38618,434.59212 334.61156,435.6406 C 336.31346,436.44173 341.04658,438.10584 343.34547,438.10584 L 346.65936,438.10584 C 359.28032,438.10584 370.1867,427.29808 370.1867,415.03783 L 370.1867,413.103 C 370.1867,409.49996 368.73458,406.72003 367.72144,404.21082 C 366.76954,401.85413 364.58225,399.33805 362.85538,397.65745 C 359.45924,394.34985 353.35527,390.84162 346.65936,390.84162 C 339.147,390.84162 331.67246,393.63254 326.91042,399.52081 C 324.02774,403.08538 321.47485,408.10106 321.47485,414.39335 C 321.47485,420.53447 323.72536,426.50519 328.22679,430.88738 L 328.22679,430.88738 L 328.22679,430.88738 z M 332.90728,439.87988 C 332.90728,437.93682 330.78278,437.59465 329.49392,436.75092 C 327.04277,435.14728 324.65144,433.07917 322.89707,430.75272 C 322.18703,429.81004 321.07383,427.621 319.81799,427.621 C 318.68872,427.621 318.49258,428.55956 318.49258,429.39505 C 318.49258,430.37345 323.18154,435.50319 324.12583,436.16965 C 325.39761,437.06835 329.8831,441.00944 331.58173,441.00944 C 332.08153,441.00944 332.90728,440.35122 332.90728,439.87988 L 332.90728,439.87988 L 332.90728,439.87988 z"
       id="path32"
       style="fill:#ffffff;fill-opacity:1;stroke:none" />
  </g>
</svg>
